static/img/kroki/6b451063649ab898f740e5591bb746e6.svg

<?xml version="1.0" encoding="us-ascii" standalone="no"?><svg xmlns="http://www.w3.org/2000/svg" xmlns:xlink="http://www.w3.org/1999/xlink" contentStyleType="text/css" height="1167px" preserveAspectRatio="none" style="width:459px;height:1167px;" version="1.1" viewBox="0 0 459 1167" width="459px" zoomAndPan="magnify"><defs/><g><!--class kubernetes_network_policy--><g id="elem_kubernetes_network_policy"><rect codeLine="23" fill="#3D176E" height="74.0859" id="kubernetes_network_policy" rx="2.5" ry="2.5" style="stroke:#000D19;stroke-width:0.5;" width="445" x="7" y="686.44"/><ellipse cx="105.25" cy="706.3345" fill="#ADD1B2" rx="11" ry="11" style="stroke:#181818;stroke-width:1.0;"/><path d="M108.2188,711.9752 Q107.6406,712.272 107,712.4127 Q106.3594,712.5689 105.6563,712.5689 Q103.1563,712.5689 101.8281,710.9283 Q100.5156,709.272 100.5156,706.147 Q100.5156,703.022 101.8281,701.3658 Q103.1563,699.7095 105.6563,699.7095 Q106.3594,699.7095 107,699.8658 Q107.6563,700.022 108.2188,700.3189 L108.2188,703.0377 Q107.5938,702.4595 107,702.1939 Q106.4063,701.9127 105.7813,701.9127 Q104.4375,701.9127 103.75,702.9908 Q103.0625,704.0533 103.0625,706.147 Q103.0625,708.2408 103.75,709.3189 Q104.4375,710.3814 105.7813,710.3814 Q106.4063,710.3814 107,710.1158 Q107.5938,709.8345 108.2188,709.2564 L108.2188,711.9752 Z " fill="#000000"/><text fill="#D9B8FF" font-family="Helvetica" font-size="17" lengthAdjust="spacing" textLength="230" x="130.75" y="712.2198">kubernetes_network_policy</text><line style="stroke:#000D19;stroke-width:0.5;" x1="8" x2="451" y1="726.2291" y2="726.2291"/><text fill="#D9B8FF" font-family="sans-serif" font-size="14" font-weight="bold" lengthAdjust="spacing" textLength="175" x="18" y="748.2242">network_policy_status</text><text fill="#D9B8FF" font-family="sans-serif" font-size="14" lengthAdjust="spacing" textLength="248" x="193" y="748.2242">: kubernetes_network_policy_status</text></g><!--class kubernetes_network_policy_status--><g id="elem_kubernetes_network_policy_status"><rect codeLine="26" fill="#3D176E" height="74.0859" id="kubernetes_network_policy_status" rx="2.5" ry="2.5" style="stroke:#000D19;stroke-width:0.5;" width="441" x="9" y="820.52"/><ellipse cx="75.25" cy="840.4145" fill="#ADD1B2" rx="11" ry="11" style="stroke:#181818;stroke-width:1.0;"/><path d="M78.2188,846.0552 Q77.6406,846.352 77,846.4927 Q76.3594,846.6489 75.6563,846.6489 Q73.1563,846.6489 71.8281,845.0083 Q70.5156,843.352 70.5156,840.227 Q70.5156,837.102 71.8281,835.4458 Q73.1563,833.7895 75.6563,833.7895 Q76.3594,833.7895 77,833.9458 Q77.6563,834.102 78.2188,834.3989 L78.2188,837.1177 Q77.5938,836.5395 77,836.2739 Q76.4063,835.9927 75.7813,835.9927 Q74.4375,835.9927 73.75,837.0708 Q73.0625,838.1333 73.0625,840.227 Q73.0625,842.3208 73.75,843.3989 Q74.4375,844.4614 75.7813,844.4614 Q76.4063,844.4614 77,844.1958 Q77.5938,843.9145 78.2188,843.3364 L78.2188,846.0552 Z " fill="#000000"/><text fill="#D9B8FF" font-family="Helvetica" font-size="17" lengthAdjust="spacing" textLength="290" x="100.75" y="846.2998">kubernetes_network_policy_status</text><line style="stroke:#000D19;stroke-width:0.5;" x1="10" x2="449" y1="860.3091" y2="860.3091"/><text fill="#D9B8FF" font-family="sans-serif" font-size="14" font-weight="bold" lengthAdjust="spacing" textLength="82" x="20" y="882.3042">conditions</text><text fill="#D9B8FF" font-family="sans-serif" font-size="14" lengthAdjust="spacing" textLength="337" x="102" y="882.3042">: kubernetes_network_policy_status_conditions[]</text></g><!--class kubernetes_network_policy_status_conditions--><g id="elem_kubernetes_network_policy_status_conditions"><rect codeLine="29" fill="#3D176E" height="205.5703" id="kubernetes_network_policy_status_conditions" rx="2.5" ry="2.5" style="stroke:#000D19;stroke-width:0.5;" width="426" x="16.5" y="954.61"/><ellipse cx="31.5" cy="974.5045" fill="#ADD1B2" rx="11" ry="11" style="stroke:#181818;stroke-width:1.0;"/><path d="M34.4688,980.1452 Q33.8906,980.442 33.25,980.5827 Q32.6094,980.7389 31.9063,980.7389 Q29.4063,980.7389 28.0781,979.0983 Q26.7656,977.442 26.7656,974.317 Q26.7656,971.192 28.0781,969.5358 Q29.4063,967.8795 31.9063,967.8795 Q32.6094,967.8795 33.25,968.0358 Q33.9063,968.192 34.4688,968.4889 L34.4688,971.2077 Q33.8438,970.6295 33.25,970.3639 Q32.6563,970.0827 32.0313,970.0827 Q30.6875,970.0827 30,971.1608 Q29.3125,972.2233 29.3125,974.317 Q29.3125,976.4108 30,977.4889 Q30.6875,978.5514 32.0313,978.5514 Q32.6563,978.5514 33.25,978.2858 Q33.8438,978.0045 34.4688,977.4264 L34.4688,980.1452 Z " fill="#000000"/><text fill="#D9B8FF" font-family="Helvetica" font-size="17" lengthAdjust="spacing" textLength="384" x="50.5" y="980.3898">kubernetes_network_policy_status_conditions</text><line style="stroke:#000D19;stroke-width:0.5;" x1="17.5" x2="441.5" y1="994.3991" y2="994.3991"/><text fill="#D9B8FF" font-family="sans-serif" font-size="14" font-weight="bold" lengthAdjust="spacing" textLength="151" x="27.5" y="1016.3942">last_transition_time</text><text fill="#D9B8FF" font-family="sans-serif" font-size="14" lengthAdjust="spacing" textLength="70" x="178.5" y="1016.3942">: datetime</text><text fill="#D9B8FF" font-family="sans-serif" font-size="14" font-weight="bold" lengthAdjust="spacing" textLength="71" x="27.5" y="1042.6911">message</text><text fill="#D9B8FF" font-family="sans-serif" font-size="14" lengthAdjust="spacing" textLength="48" x="98.5" y="1042.6911">: string</text><text fill="#D9B8FF" font-family="sans-serif" font-size="14" font-weight="bold" lengthAdjust="spacing" textLength="168" x="27.5" y="1068.9879">observed_generation</text><text fill="#D9B8FF" font-family="sans-serif" font-size="14" lengthAdjust="spacing" textLength="44" x="195.5" y="1068.9879">: int64</text><text fill="#D9B8FF" font-family="sans-serif" font-size="14" font-weight="bold" lengthAdjust="spacing" textLength="55" x="27.5" y="1095.2848">reason</text><text fill="#D9B8FF" font-family="sans-serif" font-size="14" lengthAdjust="spacing" textLength="48" x="82.5" y="1095.2848">: string</text><text fill="#D9B8FF" font-family="sans-serif" font-size="14" font-weight="bold" lengthAdjust="spacing" textLength="49" x="27.5" y="1121.5817">status</text><text fill="#D9B8FF" font-family="sans-serif" font-size="14" lengthAdjust="spacing" textLength="48" x="76.5" y="1121.5817">: string</text><text fill="#D9B8FF" font-family="sans-serif" font-size="14" font-weight="bold" lengthAdjust="spacing" textLength="35" x="27.5" y="1147.8786">type</text><text fill="#D9B8FF" font-family="sans-serif" font-size="14" lengthAdjust="spacing" textLength="48" x="62.5" y="1147.8786">: string</text></g><!--class kubernetes_resource--><g id="elem_kubernetes_resource"><rect codeLine="37" fill="#3D176E" height="126.6797" id="kubernetes_resource" rx="2.5" ry="2.5" style="stroke:#000D19;stroke-width:0.5;" width="239" x="110" y="438.76"/><ellipse cx="135.35" cy="458.6545" fill="#ADD1B2" rx="11" ry="11" style="stroke:#181818;stroke-width:1.0;"/><path d="M138.3188,464.2952 Q137.7406,464.592 137.1,464.7327 Q136.4594,464.8889 135.7563,464.8889 Q133.2563,464.8889 131.9281,463.2483 Q130.6156,461.592 130.6156,458.467 Q130.6156,455.342 131.9281,453.6858 Q133.2563,452.0295 135.7563,452.0295 Q136.4594,452.0295 137.1,452.1858 Q137.7563,452.342 138.3188,452.6389 L138.3188,455.3577 Q137.6938,454.7795 137.1,454.5139 Q136.5063,454.2327 135.8813,454.2327 Q134.5375,454.2327 133.85,455.3108 Q133.1625,456.3733 133.1625,458.467 Q133.1625,460.5608 133.85,461.6389 Q134.5375,462.7014 135.8813,462.7014 Q136.5063,462.7014 137.1,462.4358 Q137.6938,462.1545 138.3188,461.5764 L138.3188,464.2952 Z " fill="#000000"/><text fill="#D9B8FF" font-family="Helvetica" font-size="17" lengthAdjust="spacing" textLength="174" x="156.65" y="464.5398">kubernetes_resource</text><line style="stroke:#000D19;stroke-width:0.5;" x1="111" x2="348" y1="478.5491" y2="478.5491"/><text fill="#D9B8FF" font-family="sans-serif" font-size="14" font-weight="bold" lengthAdjust="spacing" textLength="46" x="121" y="500.5442">labels</text><text fill="#D9B8FF" font-family="sans-serif" font-size="14" lengthAdjust="spacing" textLength="171" x="167" y="500.5442">: dictionary[string, string]</text><text fill="#D9B8FF" font-family="sans-serif" font-size="14" font-weight="bold" lengthAdjust="spacing" textLength="90" x="121" y="526.8411">namespace</text><text fill="#D9B8FF" font-family="sans-serif" font-size="14" lengthAdjust="spacing" textLength="48" x="211" y="526.8411">: string</text><text fill="#D9B8FF" font-family="sans-serif" font-size="14" font-weight="bold" lengthAdjust="spacing" textLength="138" x="121" y="553.1379">resource_version</text><text fill="#D9B8FF" font-family="sans-serif" font-size="14" lengthAdjust="spacing" textLength="48" x="259" y="553.1379">: string</text></g><!--class resource--><g id="elem_resource"><rect codeLine="42" fill="#3D176E" height="310.7578" id="resource" rx="2.5" ry="2.5" style="stroke:#000D19;stroke-width:0.5;" width="227" x="116" y="7"/><ellipse cx="184.75" cy="26.8945" fill="#ADD1B2" rx="11" ry="11" style="stroke:#181818;stroke-width:1.0;"/><path d="M187.7188,32.5352 Q187.1406,32.832 186.5,32.9727 Q185.8594,33.1289 185.1563,33.1289 Q182.6563,33.1289 181.3281,31.4883 Q180.0156,29.832 180.0156,26.707 Q180.0156,23.582 181.3281,21.9258 Q182.6563,20.2695 185.1563,20.2695 Q185.8594,20.2695 186.5,20.4258 Q187.1563,20.582 187.7188,20.8789 L187.7188,23.5977 Q187.0938,23.0195 186.5,22.7539 Q185.9063,22.4727 185.2813,22.4727 Q183.9375,22.4727 183.25,23.5508 Q182.5625,24.6133 182.5625,26.707 Q182.5625,28.8008 183.25,29.8789 Q183.9375,30.9414 185.2813,30.9414 Q185.9063,30.9414 186.5,30.6758 Q187.0938,30.3945 187.7188,29.8164 L187.7188,32.5352 Z " fill="#000000"/><text fill="#D9B8FF" font-family="Helvetica" font-size="17" lengthAdjust="spacing" textLength="71" x="210.25" y="32.7798">resource</text><line style="stroke:#000D19;stroke-width:0.5;" x1="117" x2="342" y1="46.7891" y2="46.7891"/><text fill="#D9B8FF" font-family="sans-serif" font-size="14" font-weight="bold" lengthAdjust="spacing" textLength="29" x="127" y="68.7842">age</text><text fill="#D9B8FF" font-family="sans-serif" font-size="14" lengthAdjust="spacing" textLength="66" x="156" y="68.7842">: duration</text><text fill="#D9B8FF" font-family="sans-serif" font-size="14" font-weight="bold" lengthAdjust="spacing" textLength="43" x="127" y="95.0811">atime</text><text fill="#D9B8FF" font-family="sans-serif" font-size="14" lengthAdjust="spacing" textLength="70" x="170" y="95.0811">: datetime</text><text fill="#D9B8FF" font-family="sans-serif" font-size="14" font-weight="bold" lengthAdjust="spacing" textLength="43" x="127" y="121.3779">ctime</text><text fill="#D9B8FF" font-family="sans-serif" font-size="14" lengthAdjust="spacing" textLength="70" x="170" y="121.3779">: datetime</text><text fill="#D9B8FF" font-family="sans-serif" font-size="14" font-weight="bold" lengthAdjust="spacing" textLength="14" x="127" y="147.6748">id</text><text fill="#D9B8FF" font-family="sans-serif" font-size="14" lengthAdjust="spacing" textLength="48" x="141" y="147.6748">: string</text><text fill="#D9B8FF" font-family="sans-serif" font-size="14" font-weight="bold" lengthAdjust="spacing" textLength="33" x="127" y="173.9717">kind</text><text fill="#D9B8FF" font-family="sans-serif" font-size="14" lengthAdjust="spacing" textLength="48" x="160" y="173.9717">: string</text><text fill="#D9B8FF" font-family="sans-serif" font-size="14" font-weight="bold" lengthAdjust="spacing" textLength="90" x="127" y="200.2686">last_access</text><text fill="#D9B8FF" font-family="sans-serif" font-size="14" lengthAdjust="spacing" textLength="66" x="217" y="200.2686">: duration</text><text fill="#D9B8FF" font-family="sans-serif" font-size="14" font-weight="bold" lengthAdjust="spacing" textLength="90" x="127" y="226.5654">last_update</text><text fill="#D9B8FF" font-family="sans-serif" font-size="14" lengthAdjust="spacing" textLength="66" x="217" y="226.5654">: duration</text><text fill="#D9B8FF" font-family="sans-serif" font-size="14" font-weight="bold" lengthAdjust="spacing" textLength="48" x="127" y="252.8623">mtime</text><text fill="#D9B8FF" font-family="sans-serif" font-size="14" lengthAdjust="spacing" textLength="70" x="175" y="252.8623">: datetime</text><text fill="#D9B8FF" font-family="sans-serif" font-size="14" font-weight="bold" lengthAdjust="spacing" textLength="43" x="127" y="279.1592">name</text><text fill="#D9B8FF" font-family="sans-serif" font-size="14" lengthAdjust="spacing" textLength="48" x="170" y="279.1592">: string</text><text fill="#D9B8FF" font-family="sans-serif" font-size="14" font-weight="bold" lengthAdjust="spacing" textLength="34" x="127" y="305.4561">tags</text><text fill="#D9B8FF" font-family="sans-serif" font-size="14" lengthAdjust="spacing" textLength="171" x="161" y="305.4561">: dictionary[string, string]</text></g><!--link kubernetes_network_policy to kubernetes_network_policy_status--><g id="link_kubernetes_network_policy_kubernetes_network_policy_status"><path codeLine="54" d="M229.5,760.92 C229.5,779.4 229.5,795.78 229.5,814.24 " fill="none" id="kubernetes_network_policy-to-kubernetes_network_policy_status" style="stroke:#FFAF37;stroke-width:2.0;"/><polygon fill="#FFAF37" points="229.5,820.24,233.5,811.24,229.5,815.24,225.5,811.24,229.5,820.24" style="stroke:#FFAF37;stroke-width:2.0;"/></g><!--reverse link kubernetes_resource to kubernetes_network_policy--><g id="link_kubernetes_resource_kubernetes_network_policy"><path codeLine="55" d="M229.5,583.67 C229.5,622.68 229.5,653.5 229.5,686.21 " fill="none" id="kubernetes_resource-backto-kubernetes_network_policy" style="stroke:#FFAF37;stroke-width:2.0;"/><polygon fill="none" points="229.5,565.67,223.5,583.67,235.5,583.67,229.5,565.67" style="stroke:#FFAF37;stroke-width:2.0;"/></g><!--link kubernetes_network_policy_status to kubernetes_network_policy_status_conditions--><g id="link_kubernetes_network_policy_status_kubernetes_network_policy_status_conditions"><path codeLine="56" d="M229.5,894.85 C229.5,911.81 229.5,926.93 229.5,948.26 " fill="none" id="kubernetes_network_policy_status-to-kubernetes_network_policy_status_conditions" style="stroke:#FFAF37;stroke-width:2.0;"/><polygon fill="#FFAF37" points="229.5,954.26,233.5,945.26,229.5,949.26,225.5,945.26,229.5,954.26" style="stroke:#FFAF37;stroke-width:2.0;"/></g><!--reverse link resource to kubernetes_resource--><g id="link_resource_kubernetes_resource"><path codeLine="57" d="M229.5,335.91 C229.5,378.46 229.5,404.23 229.5,438.32 " fill="none" id="resource-backto-kubernetes_resource" style="stroke:#FFAF37;stroke-width:2.0;"/><polygon fill="none" points="229.5,317.91,223.5,335.91,235.5,335.91,229.5,317.91" style="stroke:#FFAF37;stroke-width:2.0;"/></g><!--SRC=[ZLHTQzim57tthn3qBSoGh5lJZ35e0sLxAMFTModcMhfsX6t9I792jlM_JxATLFwgynBCkUVUS-w7ikCC2HQbEP82YnYL3dJ6HGaA2dAdb3niPIuLkKeIIAxN_U2356QMy0W5ak-Oxz5m2dt6xnsdcK2joKSlT0yqIvMi16lA6mL2sn0Aux6sEMXzPupYSMNGCyCsyMsIz9dzebVNRBM-mG5DAeQgfIoNIxRQz2cpKk_sVMOyyJz8LlxG7gN1WSs1HCrwrwLZU2O7ZPxYanv_0cDSfEIpX_rgF2c1geC_xO39WsCda6jVHXjKACsnnEsWAzpSicGzIlunHGwe6nt9Adkf0WtgoFuUfCgYKkQS7idVOB7eGf4sO2gzM7oPJcivmUjS_PPOor0f63TSYejgHs_qvvUBXRoiMjCccQX-2pKO6LwWKsTWq7rRIc6V4gGrgkt34Ad5PAnHxP55AThTWKjrSIxCpISRLWYwGSuPRqCxGsun7Z3IWa8jAqMnjHfZNbTWd3f5KCVd9lT3M-F5BSiUe7tOj6luL2dQstyatl5sqks8jGspgcdE8IEZeICOPnrXUunTe9uuK6gdsbEe8rNfQlKYnOYEwxCxJaZdflCQJ1zw67wRl-UntNpz5uRXT6emU_kNA7jt6qmhdoB1Vm00]--></g></svg>

<svg xmlns="http://www.w3.org/2000/svg" width="459" height="1167" viewBox="0 0 459 1167"><rect width="445" height="74.086" x="7" y="686.44" fill="#3D176E" rx="2.5" ry="2.5" style="stroke:#000d19;stroke-width:.5"/><circle cx="105.25" cy="706.335" r="11" fill="#ADD1B2" style="stroke:#181818;stroke-width:1"/><path d="M108.219 711.975q-.578.297-1.219.438-.64.156-1.344.156-2.5 0-3.828-1.64-1.312-1.657-1.312-4.782t1.312-4.781q1.328-1.656 3.828-1.656.703 0 1.344.156.656.156 1.219.453v2.719q-.625-.578-1.219-.844-.594-.281-1.219-.281-1.344 0-2.031 1.078-.687 1.062-.687 3.156t.687 3.172q.688 1.062 2.031 1.062.625 0 1.219-.265.594-.281 1.219-.86z"/><text x="130.75" y="712.22" fill="#D9B8FF" font-family="Helvetica" font-size="17" textLength="230">kubernetes_network_policy</text><path d="M8 726.229h443" style="stroke:#000d19;stroke-width:.5"/><text x="18" y="748.224" fill="#D9B8FF" font-family="sans-serif" font-size="14" font-weight="bold" textLength="175">network_policy_status</text><text x="193" y="748.224" fill="#D9B8FF" font-family="sans-serif" font-size="14" textLength="248">: kubernetes_network_policy_status</text><rect width="441" height="74.086" x="9" y="820.52" fill="#3D176E" rx="2.5" ry="2.5" style="stroke:#000d19;stroke-width:.5"/><circle cx="75.25" cy="840.414" r="11" fill="#ADD1B2" style="stroke:#181818;stroke-width:1"/><path d="M78.219 846.055q-.578.297-1.219.438-.64.156-1.344.156-2.5 0-3.828-1.64-1.312-1.657-1.312-4.782t1.312-4.781q1.328-1.657 3.828-1.657.703 0 1.344.157.656.156 1.219.453v2.719q-.625-.579-1.219-.844-.594-.281-1.219-.281-1.344 0-2.031 1.078-.687 1.062-.687 3.156t.687 3.172q.688 1.062 2.031 1.062.625 0 1.219-.265.594-.282 1.219-.86z"/><text x="100.75" y="846.3" fill="#D9B8FF" font-family="Helvetica" font-size="17" textLength="290">kubernetes_network_policy_status</text><path d="M10 860.309h439" style="stroke:#000d19;stroke-width:.5"/><text x="20" y="882.304" fill="#D9B8FF" font-family="sans-serif" font-size="14" font-weight="bold" textLength="82">conditions</text><text x="102" y="882.304" fill="#D9B8FF" font-family="sans-serif" font-size="14" textLength="337">: kubernetes_network_policy_status_conditions[]</text><rect width="426" height="205.57" x="16.5" y="954.61" fill="#3D176E" rx="2.5" ry="2.5" style="stroke:#000d19;stroke-width:.5"/><circle cx="31.5" cy="974.505" r="11" fill="#ADD1B2" style="stroke:#181818;stroke-width:1"/><path d="M34.469 980.145q-.578.297-1.219.438-.64.156-1.344.156-2.5 0-3.828-1.64-1.312-1.657-1.312-4.782t1.312-4.781q1.328-1.656 3.828-1.656.703 0 1.344.156.656.156 1.219.453v2.719q-.625-.578-1.219-.844-.594-.281-1.219-.281-1.343 0-2.031 1.078-.687 1.062-.687 3.156t.687 3.172q.688 1.062 2.031 1.062.625 0 1.219-.265.594-.281 1.219-.86z"/><text x="50.5" y="980.39" fill="#D9B8FF" font-family="Helvetica" font-size="17" textLength="384">kubernetes_network_policy_status_conditions</text><path d="M17.5 994.399h424" style="stroke:#000d19;stroke-width:.5"/><text x="27.5" y="1016.394" fill="#D9B8FF" font-family="sans-serif" font-size="14" font-weight="bold" textLength="151">last_transition_time</text><text x="178.5" y="1016.394" fill="#D9B8FF" font-family="sans-serif" font-size="14" textLength="70">: datetime</text><text x="27.5" y="1042.691" fill="#D9B8FF" font-family="sans-serif" font-size="14" font-weight="bold" textLength="71">message</text><text x="98.5" y="1042.691" fill="#D9B8FF" font-family="sans-serif" font-size="14" textLength="48">: string</text><text x="27.5" y="1068.988" fill="#D9B8FF" font-family="sans-serif" font-size="14" font-weight="bold" textLength="168">observed_generation</text><text x="195.5" y="1068.988" fill="#D9B8FF" font-family="sans-serif" font-size="14" textLength="44">: int64</text><text x="27.5" y="1095.285" fill="#D9B8FF" font-family="sans-serif" font-size="14" font-weight="bold" textLength="55">reason</text><text x="82.5" y="1095.285" fill="#D9B8FF" font-family="sans-serif" font-size="14" textLength="48">: string</text><text x="27.5" y="1121.582" fill="#D9B8FF" font-family="sans-serif" font-size="14" font-weight="bold" textLength="49">status</text><text x="76.5" y="1121.582" fill="#D9B8FF" font-family="sans-serif" font-size="14" textLength="48">: string</text><text x="27.5" y="1147.879" fill="#D9B8FF" font-family="sans-serif" font-size="14" font-weight="bold" textLength="35">type</text><text x="62.5" y="1147.879" fill="#D9B8FF" font-family="sans-serif" font-size="14" textLength="48">: string</text><rect width="239" height="126.68" x="110" y="438.76" fill="#3D176E" rx="2.5" ry="2.5" style="stroke:#000d19;stroke-width:.5"/><circle cx="135.35" cy="458.654" r="11" fill="#ADD1B2" style="stroke:#181818;stroke-width:1"/><path d="M138.319 464.295q-.578.297-1.219.438-.64.156-1.344.156-2.5 0-3.828-1.64-1.312-1.657-1.312-4.782t1.312-4.781q1.328-1.656 3.828-1.656.703 0 1.344.156.656.156 1.219.453v2.719q-.625-.579-1.219-.844-.594-.281-1.219-.281-1.344 0-2.031 1.078-.687 1.062-.687 3.156t.687 3.172q.688 1.062 2.031 1.062.625 0 1.219-.265.594-.281 1.219-.86z"/><text x="156.65" y="464.54" fill="#D9B8FF" font-family="Helvetica" font-size="17" textLength="174">kubernetes_resource</text><path d="M111 478.549h237" style="stroke:#000d19;stroke-width:.5"/><text x="121" y="500.544" fill="#D9B8FF" font-family="sans-serif" font-size="14" font-weight="bold" textLength="46">labels</text><text x="167" y="500.544" fill="#D9B8FF" font-family="sans-serif" font-size="14" textLength="171">: dictionary[string, string]</text><text x="121" y="526.841" fill="#D9B8FF" font-family="sans-serif" font-size="14" font-weight="bold" textLength="90">namespace</text><text x="211" y="526.841" fill="#D9B8FF" font-family="sans-serif" font-size="14" textLength="48">: string</text><text x="121" y="553.138" fill="#D9B8FF" font-family="sans-serif" font-size="14" font-weight="bold" textLength="138">resource_version</text><text x="259" y="553.138" fill="#D9B8FF" font-family="sans-serif" font-size="14" textLength="48">: string</text><rect width="227" height="310.758" x="116" y="7" fill="#3D176E" rx="2.5" ry="2.5" style="stroke:#000d19;stroke-width:.5"/><circle cx="184.75" cy="26.895" r="11" fill="#ADD1B2" style="stroke:#181818;stroke-width:1"/><path d="M187.719 32.535q-.578.297-1.219.438-.64.156-1.344.156-2.5 0-3.828-1.64-1.312-1.657-1.312-4.782t1.312-4.781q1.328-1.656 3.828-1.656.703 0 1.344.156.656.156 1.219.453v2.719q-.625-.578-1.219-.844-.594-.281-1.219-.281-1.344 0-2.031 1.078-.687 1.062-.687 3.156t.687 3.172q.688 1.062 2.031 1.062.625 0 1.219-.265.594-.281 1.219-.86z"/><text x="210.25" y="32.78" fill="#D9B8FF" font-family="Helvetica" font-size="17" textLength="71">resource</text><path d="M117 46.789h225" style="stroke:#000d19;stroke-width:.5"/><text x="127" y="68.784" fill="#D9B8FF" font-family="sans-serif" font-size="14" font-weight="bold" textLength="29">age</text><text x="156" y="68.784" fill="#D9B8FF" font-family="sans-serif" font-size="14" textLength="66">: duration</text><text x="127" y="95.081" fill="#D9B8FF" font-family="sans-serif" font-size="14" font-weight="bold" textLength="43">atime</text><text x="170" y="95.081" fill="#D9B8FF" font-family="sans-serif" font-size="14" textLength="70">: datetime</text><text x="127" y="121.378" fill="#D9B8FF" font-family="sans-serif" font-size="14" font-weight="bold" textLength="43">ctime</text><text x="170" y="121.378" fill="#D9B8FF" font-family="sans-serif" font-size="14" textLength="70">: datetime</text><text x="127" y="147.675" fill="#D9B8FF" font-family="sans-serif" font-size="14" font-weight="bold" textLength="14">id</text><text x="141" y="147.675" fill="#D9B8FF" font-family="sans-serif" font-size="14" textLength="48">: string</text><text x="127" y="173.972" fill="#D9B8FF" font-family="sans-serif" font-size="14" font-weight="bold" textLength="33">kind</text><text x="160" y="173.972" fill="#D9B8FF" font-family="sans-serif" font-size="14" textLength="48">: string</text><text x="127" y="200.269" fill="#D9B8FF" font-family="sans-serif" font-size="14" font-weight="bold" textLength="90">last_access</text><text x="217" y="200.269" fill="#D9B8FF" font-family="sans-serif" font-size="14" textLength="66">: duration</text><text x="127" y="226.565" fill="#D9B8FF" font-family="sans-serif" font-size="14" font-weight="bold" textLength="90">last_update</text><text x="217" y="226.565" fill="#D9B8FF" font-family="sans-serif" font-size="14" textLength="66">: duration</text><text x="127" y="252.862" fill="#D9B8FF" font-family="sans-serif" font-size="14" font-weight="bold" textLength="48">mtime</text><text x="175" y="252.862" fill="#D9B8FF" font-family="sans-serif" font-size="14" textLength="70">: datetime</text><text x="127" y="279.159" fill="#D9B8FF" font-family="sans-serif" font-size="14" font-weight="bold" textLength="43">name</text><text x="170" y="279.159" fill="#D9B8FF" font-family="sans-serif" font-size="14" textLength="48">: string</text><text x="127" y="305.456" fill="#D9B8FF" font-family="sans-serif" font-size="14" font-weight="bold" textLength="34">tags</text><text x="161" y="305.456" fill="#D9B8FF" font-family="sans-serif" font-size="14" textLength="171">: dictionary[string, string]</text><path fill="none" d="M229.5 760.92v53.32" style="stroke:#ffaf37;stroke-width:2"/><path fill="#FFAF37" d="m229.5 820.24 4-9-4 4-4-4z" style="stroke:#ffaf37;stroke-width:2"/><path fill="none" d="M229.5 583.67v102.54m0-120.54-6 18h12zm0 329.18v53.41" style="stroke:#ffaf37;stroke-width:2"/><path fill="#FFAF37" d="m229.5 954.26 4-9-4 4-4-4z" style="stroke:#ffaf37;stroke-width:2"/><path fill="none" d="M229.5 335.91v102.41m0-120.41-6 18h12z" style="stroke:#ffaf37;stroke-width:2"/></svg>
